src/svg/group.svg

<svg version="1.2" baseProfile="tiny" xmlns="http://www.w3.org/2000/svg" width="24" height="24" viewBox="0 0 24 24"><path d="M12 14c1.381 0 2.631-.56 3.536-1.465.904-.904 1.464-2.154 1.464-3.535s-.56-2.631-1.464-3.535c-.905-.905-2.155-1.465-3.536-1.465s-2.631.56-3.536 1.465c-.904.904-1.464 2.154-1.464 3.535s.56 2.631 1.464 3.535c.905.905 2.155 1.465 3.536 1.465zM20 15c.69 0 1.315-.279 1.768-.731.453-.452.732-1.077.732-1.769 0-.69-.279-1.315-.732-1.768-.453-.453-1.078-.732-1.768-.732-.691 0-1.316.279-1.769.732-.452.453-.731 1.078-.731 1.768 0 .691.279 1.316.731 1.769s1.078.731 1.769.731zM20 15.59c-1.331 0-2.332.406-2.917.968-1.115-.917-2.878-1.558-5.083-1.558-2.266 0-3.995.648-5.092 1.564-.596-.565-1.608-.974-2.908-.974-2.188 0-3.5 1.09-3.5 2.182 0 .545 1.312 1.092 3.5 1.092.604 0 1.146-.051 1.623-.133l-.04.27c0 1 2.406 2 6.417 2 3.762 0 6.417-1 6.417-2l-.02-.255c.463.073.995.118 1.603.118 2.051 0 3.5-.547 3.5-1.092 0-1.092-1.373-2.182-3.5-2.182zM4 15c.69 0 1.315-.279 1.768-.732.453-.453.732-1.078.732-1.768 0-.689-.279-1.314-.732-1.768-.453-.452-1.078-.732-1.768-.732-.691 0-1.316.28-1.769.732-.452.454-.731 1.079-.731 1.768 0 .69.279 1.315.731 1.768.453.453 1.078.732 1.769.732z"/></svg>

<?xml version="1.0" encoding="iso-8859-1"?>
<!-- Generator: Adobe Illustrator 16.2.1, SVG Export Plug-In . SVG Version: 6.00 Build 0)  -->
<svg version="1.2" baseProfile="tiny" id="Layer_1" xmlns="http://www.w3.org/2000/svg" xmlns:xlink="http://www.w3.org/1999/xlink"
	 x="0px" y="0px" width="24px" height="24px" viewBox="0 0 24 24" xml:space="preserve">
<g>
	<path d="M12,14c1.381,0,2.631-0.56,3.536-1.465C16.44,11.631,17,10.381,17,9s-0.56-2.631-1.464-3.535C14.631,4.56,13.381,4,12,4
		S9.369,4.56,8.464,5.465C7.56,6.369,7,7.619,7,9s0.56,2.631,1.464,3.535C9.369,13.44,10.619,14,12,14z"/>
	<path d="M20,15c0.69,0,1.315-0.279,1.768-0.731c0.453-0.452,0.732-1.077,0.732-1.769c0-0.69-0.279-1.315-0.732-1.768
		C21.315,10.279,20.69,10,20,10c-0.691,0-1.316,0.279-1.769,0.732C17.779,11.185,17.5,11.81,17.5,12.5
		c0,0.691,0.279,1.316,0.731,1.769S19.309,15,20,15z"/>
	<path d="M20,15.59c-1.331,0-2.332,0.406-2.917,0.968C15.968,15.641,14.205,15,12,15c-2.266,0-3.995,0.648-5.092,1.564
		C6.312,15.999,5.3,15.59,4,15.59c-2.188,0-3.5,1.09-3.5,2.182c0,0.545,1.312,1.092,3.5,1.092c0.604,0,1.146-0.051,1.623-0.133
		c-0.01,0.091-0.04,0.18-0.04,0.27c0,1,2.406,2,6.417,2c3.762,0,6.417-1,6.417-2c0-0.085-0.011-0.17-0.02-0.255
		c0.463,0.073,0.995,0.118,1.603,0.118c2.051,0,3.5-0.547,3.5-1.092C23.5,16.68,22.127,15.59,20,15.59z"/>
	<path d="M4,15c0.69,0,1.315-0.279,1.768-0.732C6.221,13.815,6.5,13.19,6.5,12.5c0-0.689-0.279-1.314-0.732-1.768
		C5.315,10.28,4.69,10,4,10c-0.691,0-1.316,0.28-1.769,0.732C1.779,11.186,1.5,11.811,1.5,12.5c0,0.69,0.279,1.315,0.731,1.768
		C2.684,14.721,3.309,15,4,15z"/>
</g>
</svg>
